;FLAVOR:RepRap
;TIME:3777
;Filament used: 2.50638m
;Layer height: 0.1
;Generated with Cura_SteamEngine master
M104 S190
M109 S190
G21       ;metric values
G90       ;absolute positioning
M82       ;set extruder to absolute mode
M107      ;start with the fan off
G1 Z15.0 F840
G92 E0    ;zero the extruded length
G1 F200 E3              ;extrude 3mm of feed stock
G92 E0                  ;zero the extruded length again
G1 F840
G28
G29
M117 Printing...
;LAYER_COUNT:62
;LAYER:0
M106 S255
G0 F2730 X99.707 Y137.677 Z0.3
;TYPE:SKIRT
G1 X100.149 Y137.374 E0.02674
G1 X100.632 Y137.139 E0.05353
G1 X101.143 Y136.979 E0.08025
G1 X101.673 Y136.896 E0.10701
G1 X101.96 Y136.885 E0.12134
G1 X197.711 Y136.886 E4.89838
G1 X198.246 Y136.926 E4.92514
G1 X198.769 Y137.045 E4.9519
G1 X199.268 Y137.24 E4.97863
G1 X199.733 Y137.508 E5.00541
G1 X200.153 Y137.841 E5.03215
G1 X200.519 Y138.233 E5.0589
G1 X200.822 Y138.675 E5.08564
G1 X201.057 Y139.158 E5.11244
G1 X201.217 Y139.669 E5.13915
G1 X201.3 Y140.199 E5.16592
G1 X201.311 Y140.486 E5.18025
G1 X201.311 Y159.515 E6.12961
G1 X201.271 Y160.05 E6.15637
G1 X201.152 Y160.573 E6.18313
G1 X200.957 Y161.072 E6.20986
G1 X200.689 Y161.537 E6.23664
G1 X200.356 Y161.957 E6.26338
G1 X199.964 Y162.323 E6.29013
G1 X199.522 Y162.626 E6.31687
G1 X199.039 Y162.861 E6.34367
G1 X198.528 Y163.021 E6.37038
G1 X197.998 Y163.104 E6.39714
G1 X197.711 Y163.115 E6.41147
G1 X101.96 Y163.115 E11.18851
G1 X101.425 Y163.075 E11.21528
G1 X100.902 Y162.956 E11.24204
G1 X100.403 Y162.761 E11.26876
G1 X99.938 Y162.493 E11.29554
G1 X99.518 Y162.16 E11.32228
G1 X99.152 Y161.768 E11.34904
G1 X98.849 Y161.326 E11.37577
G1 X98.614 Y160.843 E11.40257
G1 X98.454 Y160.332 E11.42928
G1 X98.371 Y159.802 E11.45605
G1 X98.36 Y159.515 E11.47038
G1 X98.36 Y140.485 E12.41979
G1 X98.4 Y139.95 E12.44655
G1 X98.519 Y139.427 E12.47331
G1 X98.714 Y138.928 E12.50004
G1 X98.982 Y138.463 E12.52682
G1 X99.315 Y138.043 E12.55356
G1 X99.707 Y137.677 E12.58032
G0 X100.096 Y137.884
G1 X100.529 Y137.623 E12.60554
G1 X100.997 Y137.433 E12.63074
G1 X101.49 Y137.32 E12.65597
G1 X101.96 Y137.285 E12.67949
G1 X197.711 Y137.286 E17.45652
G1 X198.215 Y137.326 E17.48175
G1 X198.706 Y137.445 E17.50695
G1 X199.173 Y137.639 E17.53218
G1 X199.603 Y137.905 E17.55741
G1 X199.986 Y138.235 E17.58263
G1 X200.312 Y138.622 E17.60787
G1 X200.573 Y139.055 E17.6331
G1 X200.763 Y139.523 E17.6583
G1 X200.876 Y140.016 E17.68353
G1 X200.911 Y140.486 E17.70704
G1 X200.911 Y159.515 E18.6564
G1 X200.871 Y160.019 E18.68163
G1 X200.752 Y160.51 E18.70683
G1 X200.558 Y160.977 E18.73206
G1 X200.292 Y161.407 E18.75729
G1 X199.962 Y161.79 E18.78251
G1 X199.575 Y162.116 E18.80775
G1 X199.142 Y162.377 E18.83298
G1 X198.674 Y162.567 E18.85818
G1 X198.181 Y162.68 E18.88341
G1 X197.711 Y162.715 E18.90692
G1 X101.96 Y162.715 E23.68396
G1 X101.456 Y162.675 E23.70919
G1 X100.965 Y162.556 E23.73439
G1 X100.498 Y162.362 E23.75962
G1 X100.068 Y162.096 E23.78485
G1 X99.685 Y161.766 E23.81007
G1 X99.359 Y161.379 E23.83531
G1 X99.098 Y160.946 E23.86054
G1 X98.908 Y160.478 E23.88574
G1 X98.795 Y159.985 E23.91097
G1 X98.76 Y159.515 E23.93448
G1 X98.76 Y140.485 E24.88389
G1 X98.8 Y139.981 E24.90912
G1 X98.919 Y139.49 E24.93432
G1 X99.113 Y139.023 E24.95955
G1 X99.379 Y138.593 E24.98478
G1 X99.709 Y138.21 E25.01
G1 X100.096 Y137.884 E25.03524
G1 F600 E22.53524
G0 F2730 X102.565 Y139.811
G0 X102.565 Y141.09
G0 X102.621 Y141.146
G0 X102.551 Y141.076
;TYPE:WALL-INNER
G1 F600 E25.03524
G1 F2730 X119.13 Y141.076 E25.86237
G1 X119.13 Y158.924 E26.75281
G1 X102.551 Y158.924 E27.57994
G1 X102.551 Y141.076 E28.47038
G0 X102.621 Y141.146
G0 X108.108 Y147.253
G0 X108.178 Y147.323
G1 X107.958 Y147.562 E28.48659
G1 X107.761 Y147.816 E28.50263
G1 X107.586 Y148.088 E28.51876
G1 X107.433 Y148.373 E28.5349
G1 X107.289 Y148.72 E28.55364
G1 X107.207 Y148.977 E28.5671
G1 X107.132 Y149.29 E28.58316
G1 X107.087 Y149.602 E28.59889
G1 X107.071 Y149.774 E28.60751
G1 X107.066 Y150.091 E28.62332
G1 X107.088 Y150.415 E28.63953
G1 X107.147 Y150.786 E28.65827
G1 X107.228 Y151.098 E28.67435
G1 X107.316 Y151.354 E28.68785
G1 X107.444 Y151.649 E28.7039
G1 X107.624 Y151.978 E28.72261
G1 X107.807 Y152.246 E28.7388
G1 X107.974 Y152.456 E28.75218
G1 X108.192 Y152.691 E28.76818
G1 X108.432 Y152.907 E28.78428
G1 X108.689 Y153.103 E28.80041
G1 X108.962 Y153.274 E28.81648
G1 X109.251 Y153.425 E28.83275
G1 X109.598 Y153.564 E28.8514
G1 X109.855 Y153.644 E28.86483
G1 X110.162 Y153.714 E28.88054
G1 X110.336 Y153.741 E28.88932
G1 X110.65 Y153.77 E28.90505
G1 X110.971 Y153.773 E28.92107
G1 X111.295 Y153.748 E28.93728
G1 X111.614 Y153.695 E28.95341
G1 X111.927 Y153.615 E28.96953
G1 X112.279 Y153.491 E28.98815
G1 X112.528 Y153.377 E29.00181
G1 X112.807 Y153.222 E29.01774
G1 X113.074 Y153.043 E29.03377
G1 X113.321 Y152.846 E29.04954
G1 X113.449 Y152.729 E29.05819
G1 X113.67 Y152.499 E29.0741
G1 X113.873 Y152.248 E29.09021
G1 X114.056 Y151.979 E29.10644
G1 X114.234 Y151.652 E29.12501
G1 X114.344 Y151.405 E29.1385
G1 X114.451 Y151.102 E29.15453
G1 X114.532 Y150.79 E29.17062
G1 X114.586 Y150.472 E29.18671
G1 X114.613 Y150.15 E29.20283
G1 X114.612 Y149.828 E29.21889
G1 X114.583 Y149.506 E29.23502
G1 X114.527 Y149.189 E29.25108
G1 X114.444 Y148.877 E29.26719
G1 X114.336 Y148.575 E29.28319
G1 X114.202 Y148.281 E29.29931
G1 X114.043 Y148 E29.31542
G1 X113.86 Y147.734 E29.33153
G1 X113.655 Y147.483 E29.3477
G1 X113.43 Y147.253 E29.36375
G1 X113.187 Y147.041 E29.37984
G1 X112.924 Y146.852 E29.39599
G1 X112.649 Y146.687 E29.41199
G1 X112.361 Y146.544 E29.42804
G1 X112.057 Y146.426 E29.44431
G1 X111.748 Y146.336 E29.46036
G1 X111.434 Y146.272 E29.47635
G1 X111.111 Y146.234 E29.49257
G1 X110.789 Y146.226 E29.50864
G1 X110.467 Y146.244 E29.52473
G1 X110.149 Y146.289 E29.54076
G1 X109.833 Y146.361 E29.55693
G1 X109.525 Y146.462 E29.5731
G1 X109.181 Y146.609 E29.59176
G1 X108.942 Y146.737 E29.60529
G1 X108.672 Y146.909 E29.62126
G1 X108.416 Y147.106 E29.63737
G1 X108.178 Y147.323 E29.65344
G0 X108.46 Y147.607
;TYPE:WALL-OUTER
G1 X108.264 Y147.82 E29.66788
G1 X108.088 Y148.047 E29.68221
G1 X107.931 Y148.291 E29.69669
G1 X107.795 Y148.545 E29.71106
G1 X107.665 Y148.858 E29.72797
G1 X107.592 Y149.085 E29.73987
G1 X107.525 Y149.365 E29.75423
G1 X107.484 Y149.648 E29.7685
G1 X107.471 Y149.795 E29.77586
G1 X107.466 Y150.081 E29.79013
G1 X107.486 Y150.37 E29.80459
G1 X107.539 Y150.704 E29.82146
G1 X107.611 Y150.983 E29.83583
G1 X107.689 Y151.209 E29.84776
G1 X107.804 Y151.473 E29.86213
G1 X107.966 Y151.769 E29.87896
G1 X108.129 Y152.009 E29.89344
G1 X108.277 Y152.195 E29.90529
G1 X108.473 Y152.406 E29.91966
G1 X108.687 Y152.599 E29.93404
G1 X108.917 Y152.774 E29.94846
G1 X109.161 Y152.927 E29.96283
G1 X109.418 Y153.061 E29.97729
G1 X109.732 Y153.187 E29.99417
G1 X109.959 Y153.257 E30.00602
G1 X110.238 Y153.321 E30.0203
G1 X110.385 Y153.344 E30.02772
G1 X110.67 Y153.37 E30.042
G1 X110.958 Y153.373 E30.05637
G1 X111.246 Y153.351 E30.07078
G1 X111.531 Y153.303 E30.0852
G1 X111.811 Y153.232 E30.09961
G1 X112.129 Y153.12 E30.11643
G1 X112.347 Y153.02 E30.12839
G1 X112.598 Y152.881 E30.14271
G1 X112.837 Y152.72 E30.15709
G1 X113.061 Y152.541 E30.17139
G1 X113.17 Y152.442 E30.17874
G1 X113.37 Y152.234 E30.19313
G1 X113.551 Y152.01 E30.2075
G1 X113.714 Y151.77 E30.22198
G1 X113.875 Y151.475 E30.23874
G1 X113.972 Y151.257 E30.25065
G1 X114.068 Y150.985 E30.26504
G1 X114.141 Y150.706 E30.27943
G1 X114.189 Y150.422 E30.29379
G1 X114.213 Y150.134 E30.30821
G1 X114.212 Y149.847 E30.32253
G1 X114.186 Y149.559 E30.33696
G1 X114.136 Y149.275 E30.35135
G1 X114.062 Y148.996 E30.36575
G1 X113.965 Y148.726 E30.38006
G1 X113.845 Y148.463 E30.39448
G1 X113.703 Y148.212 E30.40887
G1 X113.54 Y147.974 E30.42326
G1 X113.357 Y147.75 E30.43769
G1 X113.155 Y147.544 E30.45209
G1 X112.938 Y147.355 E30.46644
G1 X112.704 Y147.186 E30.48084
G1 X112.457 Y147.038 E30.49521
G1 X112.199 Y146.91 E30.50958
G1 X111.929 Y146.805 E30.52403
G1 X111.652 Y146.725 E30.53841
G1 X111.37 Y146.667 E30.55278
G1 X111.083 Y146.633 E30.5672
G1 X110.795 Y146.626 E30.58157
G1 X110.507 Y146.642 E30.59596
G1 X110.222 Y146.683 E30.61033
G1 X109.94 Y146.747 E30.62475
G1 X109.666 Y146.837 E30.63914
G1 X109.354 Y146.97 E30.65606
G1 X109.144 Y147.082 E30.66794
G1 X108.902 Y147.237 E30.68227
G1 X108.673 Y147.413 E30.69668
G1 X108.46 Y147.607 E30.71106
G0 X108.325 Y147.754
G0 X107.957 Y147.416
G0 X102.621 Y141.146
G0 X102.151 Y140.676
G1 X119.53 Y140.676 E31.5781
G1 X119.53 Y159.324 E32.50845
G1 X102.151 Y159.324 E33.37549
G1 X102.151 Y140.676 E34.30584
G0 X102.351 Y140.676
G0 X102.788 Y141.255
;TYPE:SKIN
G1 X108.412 Y146.879 E34.70265
G1 X108.482 Y146.949
G0 X108.108 Y147.141
G1 X102.73 Y141.762 E35.08213
G1 X102.66 Y141.692
G0 X102.73 Y142.328
G1 X107.834 Y147.432 E35.44224
G1 X107.904 Y147.502
G0 X107.588 Y147.752
G1 X102.73 Y142.894 E35.785
G1 X102.66 Y142.824
G0 X102.73 Y143.459
G1 X107.373 Y148.102 E36.11259
G1 X107.443 Y148.172
G0 X107.191 Y148.486
G1 X102.73 Y144.025 E36.42734
G1 X102.66 Y143.955
G0 X102.73 Y144.591
G1 X107.041 Y148.902 E36.7315
G1 X107.111 Y148.972
G0 X106.939 Y149.365
G1 X102.73 Y145.157 E37.02844
G1 X102.66 Y145.087
G0 X102.73 Y145.722
G1 X106.889 Y149.881 E37.32188
G1 X106.959 Y149.951
G0 X106.915 Y150.473
G1 X102.73 Y146.288 E37.61715
G1 X102.66 Y146.218
G0 X102.73 Y146.854
G1 X107.07 Y151.194 E37.92336
G1 X107.14 Y151.264
G0 X107.659 Y152.348
G1 X102.73 Y147.419 E38.27113
G1 X102.66 Y147.349
G0 X102.73 Y147.985
G1 X113.488 Y158.743 E39.03016
G1 X113.558 Y158.813
G0 X114.054 Y158.743
G1 X108.48 Y153.169 E39.42344
G1 X108.41 Y153.099
G0 X109.642 Y153.766
G1 X114.619 Y158.743 E39.77459
G1 X114.689 Y158.813
G0 X115.185 Y158.743
G1 X110.366 Y153.924 E40.1146
G1 X110.296 Y153.854
G0 X110.96 Y153.952
G1 X115.751 Y158.743 E40.45263
G1 X115.821 Y158.813
G0 X116.316 Y158.743
G1 X111.473 Y153.9 E40.79433
G1 X111.403 Y153.83
G0 X111.937 Y153.797
G1 X116.882 Y158.743 E41.14326
G1 X116.952 Y158.813
G0 X117.448 Y158.743
G1 X112.357 Y153.652 E41.50246
G1 X112.287 Y153.582
G0 X112.737 Y153.466
G1 X118.014 Y158.743 E41.87478
G1 X118.084 Y158.813
G0 X118.579 Y158.743
G1 X113.086 Y153.25 E42.26234
G1 X113.016 Y153.18
G0 X113.408 Y153.006
G1 X118.95 Y158.548 E42.65336
G1 X119.02 Y158.618
G0 X118.95 Y157.982
G1 X113.697 Y152.729 E43.02399
G1 X113.627 Y152.659
G0 X113.958 Y152.425
G1 X118.95 Y157.416 E43.37616
G1 X119.02 Y157.486
G0 X118.95 Y156.851
G1 X114.193 Y152.094 E43.7118
G1 X114.123 Y152.024
G0 X114.395 Y151.73
G1 X118.95 Y156.285 E44.03318
G1 X119.02 Y156.355
G0 X118.95 Y155.719
G1 X114.56 Y151.33 E44.34288
G1 X114.49 Y151.26
G0 X114.69 Y150.894
G1 X118.95 Y155.154 E44.64345
G1 X119.02 Y155.224
G0 X118.95 Y154.588
G1 X114.771 Y150.409 E44.9383
G1 X114.701 Y150.339
G0 X114.792 Y149.864
G1 X118.95 Y154.022 E45.23167
G1 X119.02 Y154.092
G0 X118.95 Y153.457
G1 X114.714 Y149.221 E45.53054
G1 X114.644 Y149.151
G0 X114.448 Y148.389
G1 X118.95 Y152.891 E45.84818
G1 X119.02 Y152.961
G0 X118.95 Y152.325
G1 X107.879 Y141.255 E46.62926
G1 X107.809 Y141.185
G0 X107.314 Y141.255
G1 X112.439 Y146.381 E46.99089
G1 X112.509 Y146.451
G0 X111.618 Y146.125
G1 X106.748 Y141.255 E47.3345
G1 X106.678 Y141.185
G0 X106.182 Y141.255
G1 X110.976 Y146.049 E47.67274
G1 X111.046 Y146.119
G0 X110.428 Y146.067
G1 X105.617 Y141.255 E48.01222
G1 X105.547 Y141.185
G0 X105.051 Y141.255
G1 X109.945 Y146.149 E48.35752
G1 X110.015 Y146.219
G0 X109.507 Y146.277
G1 X104.485 Y141.255 E48.71185
G1 X104.415 Y141.185
G0 X103.919 Y141.255
G1 X109.108 Y146.443 E49.07792
G1 X109.178 Y146.513
G0 X108.745 Y146.646
G1 X103.354 Y141.255 E49.45829
G1 X103.284 Y141.185
G0 X108.445 Y141.255
G1 X118.95 Y151.759 E50.19944
G1 X119.02 Y151.829
G0 X118.95 Y151.194
G1 X109.011 Y141.255 E50.90069
G1 X108.941 Y141.185
G0 X109.576 Y141.255
G1 X118.95 Y150.628 E51.56204
G1 X119.02 Y150.698
G0 X118.95 Y150.062
G1 X110.142 Y141.255 E52.18345
G1 X110.072 Y141.185
G0 X110.708 Y141.255
G1 X118.95 Y149.497 E52.76497
G1 X119.02 Y149.567
G0 X118.95 Y148.931
G1 X111.273 Y141.255 E53.30659
G1 X111.203 Y141.185
G0 X111.839 Y141.255
G1 X118.95 Y148.365 E53.80827
G1 X119.02 Y148.435
G0 X118.95 Y147.8
G1 X112.405 Y141.255 E54.27006
G1 X112.335 Y141.185
G0 X112.97 Y141.255
G1 X118.95 Y147.234 E54.69195
G1 X119.02 Y147.304
G0 X118.95 Y146.668
G1 X113.536 Y141.255 E55.0739
G1 X113.466 Y141.185
G0 X114.102 Y141.255
G1 X118.95 Y146.103 E55.41595
G1 X119.02 Y146.173
G0 X118.95 Y145.537
G1 X114.667 Y141.255 E55.7181
G1 X114.597 Y141.185
G0 X115.233 Y141.255
G1 X118.95 Y144.971 E55.98032
G1 X119.02 Y145.041
G0 X118.95 Y144.406
G1 X115.799 Y141.255 E56.20264
G1 X115.729 Y141.185
G0 X116.365 Y141.255
G1 X118.95 Y143.84 E56.38503
G1 X119.02 Y143.91
G0 X118.95 Y143.274
G1 X116.93 Y141.255 E56.52751
G1 X116.86 Y141.185
G0 X117.496 Y141.255
G1 X118.95 Y142.708 E56.63007
G1 X119.02 Y142.778
G0 X118.95 Y142.143
G1 X118.062 Y141.255 E56.69272
G1 X117.992 Y141.185
G0 X118.627 Y141.255
G1 X118.95 Y141.577 E56.71547
G0 X102.73 Y148.551
G1 X112.922 Y158.743 E57.43458
G1 X112.992 Y158.813
G0 X112.357 Y158.743
G1 X102.73 Y149.116 E58.11381
G1 X102.66 Y149.046
G0 X102.73 Y149.682
G1 X111.791 Y158.743 E58.75311
G1 X111.861 Y158.813
G0 X111.225 Y158.743
G1 X102.73 Y150.248 E59.35248
G1 X102.66 Y150.178
G0 X102.73 Y150.813
G1 X110.66 Y158.743 E59.91199
G1 X110.73 Y158.813
G0 X110.094 Y158.743
G1 X102.73 Y151.379 E60.43156
G1 X102.66 Y151.309
G0 X102.73 Y151.945
G1 X109.528 Y158.743 E60.91119
G1 X109.598 Y158.813
G0 X108.963 Y158.743
G1 X102.73 Y152.51 E61.35096
G1 X102.66 Y152.44
G0 X102.73 Y153.076
G1 X108.397 Y158.743 E61.7508
G1 X108.467 Y158.813
G0 X107.831 Y158.743
G1 X102.73 Y153.642 E62.1107
G1 X102.66 Y153.572
G0 X102.73 Y154.207
G1 X107.265 Y158.743 E62.43071
G1 X107.335 Y158.813
G0 X106.7 Y158.743
G1 X102.73 Y154.773 E62.71081
G1 X102.66 Y154.703
G0 X102.73 Y155.339
G1 X106.134 Y158.743 E62.95098
G1 X106.204 Y158.813
G0 X105.568 Y158.743
G1 X102.73 Y155.905 E63.15122
G1 X102.66 Y155.835
G0 X102.73 Y156.47
G1 X105.003 Y158.743 E63.31159
G1 X105.073 Y158.813
G0 X104.437 Y158.743
G1 X102.73 Y157.036 E63.43203
G1 X102.66 Y156.966
G0 X102.73 Y157.602
G1 X103.871 Y158.743 E63.51253
G1 X103.941 Y158.813
G0 X103.306 Y158.743
G1 X102.73 Y158.167 E63.55317
G1 X102.66 Y158.097
G0 X102.951 Y158.097
G1 F600 E61.05317
G0 F2730 X119.11 Y158.854
G0 X120.395 Y158.854
G0 X120.855 Y160.177
G0 X159.499 Y160.177
G0 X159.804 Y158.854
G0 X161.089 Y158.854
G0 X161.139 Y158.854
G0 X161.069 Y158.924
;TYPE:WALL-INNER
G1 F600 E63.55317
G1 F2730 X161.069 Y141.076 E64.44362
G1 X177.65 Y141.076 E65.27084
G1 X177.65 Y158.924 E66.16129
G1 X161.069 Y158.924 E66.98851
G0 X161.139 Y158.854
G0 X166.641 Y152.762
G0 X166.711 Y152.691
G1 X166.951 Y152.907 E67.00462
G1 X167.208 Y153.103 E67.02075
G1 X167.481 Y153.274 E67.03682
G1 X167.77 Y153.425 E67.05309
G1 X168.117 Y153.564 E67.07174
G1 X168.374 Y153.644 E67.08517
G1 X168.681 Y153.714 E67.10087
G1 X168.855 Y153.741 E67.10966
G1 X169.169 Y153.77 E67.12539
G1 X169.49 Y153.773 E67.14141
G1 X169.814 Y153.748 E67.15762
G1 X170.133 Y153.695 E67.17375
G1 X170.446 Y153.615 E67.18987
G1 X170.798 Y153.491 E67.20849
G1 X171.047 Y153.377 E67.22215
G1 X171.326 Y153.222 E67.23808
G1 X171.593 Y153.043 E67.25411
G1 X171.84 Y152.846 E67.26987
G1 X171.968 Y152.729 E67.27853
G1 X172.189 Y152.499 E67.29444
G1 X172.392 Y152.248 E67.31055
G1 X172.575 Y151.979 E67.32678
G1 X172.753 Y151.652 E67.34535
G1 X172.863 Y151.405 E67.35884
G1 X172.97 Y151.102 E67.37487
G1 X173.051 Y150.79 E67.39095
G1 X173.105 Y150.472 E67.40705
G1 X173.132 Y150.15 E67.42317
G1 X173.131 Y149.828 E67.43923
G1 X173.102 Y149.506 E67.45536
G1 X173.046 Y149.189 E67.47142
G1 X172.963 Y148.877 E67.48753
G1 X172.855 Y148.575 E67.50353
G1 X172.721 Y148.281 E67.51965
G1 X172.562 Y148 E67.53576
G1 X172.379 Y147.734 E67.55187
G1 X172.174 Y147.483 E67.56803
G1 X171.949 Y147.253 E67.58409
G1 X171.706 Y147.041 E67.60017
G1 X171.443 Y146.852 E67.61633
G1 X171.168 Y146.687 E67.63233
G1 X170.88 Y146.544 E67.64837
G1 X170.576 Y146.426 E67.66464
G1 X170.267 Y146.336 E67.6807
G1 X169.953 Y146.272 E67.69669
G1 X169.63 Y146.234 E67.71291
