( Made using CamBam - http://www.cambam.info )
( bottom_plate 9/7/2017 11:04:50 PM )
( T0 : 0.125 )
G20 G90 G64 G40
G0 Z0.25
( T0 : 0.125 )
T0 M6
( cutout )
G17
G0 X0.4823 Y3.3763
G0 Z0.0625
G1 F10.0 Z-0.07
G3 F60.0 X0.625 Y3.5 I0.0177 J0.1237
G3 X0.4375 Y3.6083 I-0.125 J0.0
G3 Y3.3917 I0.0625 J-0.1083
G3 X0.4823 Y3.3763 I0.0625 J0.1083
G0 Z0.25
G0 X2.5429 Y5.2051
G0 Z0.0625
G1 F10.0 Z-0.07
G3 F60.0 X2.6053 Y5.1542 I0.1882 J0.167
G3 X2.9827 Y5.3721 I0.1258 J0.2179
G3 X2.6053 Y5.59 I-0.2516 J0.0
G3 X2.5429 Y5.2051 I0.1258 J-0.2179
G0 Z0.25
G0 X4.5329 Y4.6702
G0 Z0.0625
G1 F10.0 Z-0.07
G3 F60.0 X4.545 Y4.641 I0.0251 J-0.0067
G3 X4.584 Y4.6635 I0.013 J0.0225
G3 X4.545 Y4.686 I-0.026 J0.0
G3 X4.5329 Y4.6702 I0.013 J-0.0225
G0 Z0.25
G0 X4.5571 Y3.9395
G0 Z0.0625
G1 F10.0 Z-0.07
G3 F60.0 X4.545 Y3.936 I0.0009 J-0.026
G3 Y3.891 I0.013 J-0.0225
G3 X4.584 Y3.9135 I0.013 J0.0225
G3 X4.5571 Y3.9395 I-0.026 J0.0
G0 Z0.25
G0 X4.558 Y3.1125
G0 Z0.0625
G1 F10.0 Z-0.07
G3 F60.0 X4.545 Y3.109 I0.0 J-0.026
G3 Y3.064 I0.013 J-0.0225
G3 X4.584 Y3.0865 I0.013 J0.0225
G3 X4.558 Y3.1125 I-0.026 J0.0
G0 Z0.25
G0 Y2.3625
G0 Z0.0625
G1 F10.0 Z-0.07
G3 F60.0 X4.545 Y2.359 I0.0 J-0.026
G3 Y2.314 I0.013 J-0.0225
G3 X4.584 Y2.3365 I0.013 J0.0225
G3 X4.558 Y2.3625 I-0.026 J0.0
G0 Z0.25
G0 X5.974 Y2.337
G0 Z0.0625
G1 F10.0 Z-0.07
G3 F60.0 X5.987 Y2.314 I0.026 J-0.0005
G3 X6.026 Y2.3365 I0.013 J0.0225
G3 X5.987 Y2.359 I-0.026 J0.0
G3 X5.974 Y2.337 I0.013 J-0.0225
G0 Z0.25
G0 X5.9991 Y3.0605
G0 Z0.0625
G1 F10.0 Z-0.07
G3 F60.0 X6.026 Y3.0865 I0.0009 J0.026
G3 X5.987 Y3.109 I-0.026 J0.0
G3 Y3.064 I0.013 J-0.0225
G3 X5.9991 Y3.0605 I0.013 J0.0225
G0 Z0.25
G0 X6.0 Y3.8875
G0 Z0.0625
G1 F10.0 Z-0.07
G3 F60.0 X6.026 Y3.9135 I0.0 J0.026
G3 X5.987 Y3.936 I-0.026 J0.0
G3 Y3.891 I0.013 J-0.0225
G3 X6.0 Y3.8875 I0.013 J0.0225
G0 Z0.25
G0 X5.9923 Y4.6375
G0 Z0.0625
G1 F10.0 Z-0.07
G3 F60.0 X6.018 Y4.6635 I-0.0003 J0.026
G3 X5.979 Y4.686 I-0.026 J0.0
G3 Y4.641 I0.013 J-0.0225
G3 X5.9923 Y4.6375 I0.013 J0.0225
G1 F10.0 Z-0.135
G3 F60.0 X6.018 Y4.6635 I-0.0003 J0.026
G3 X5.979 Y4.686 I-0.026 J0.0
G3 Y4.641 I0.013 J-0.0225
G3 X5.9923 Y4.6375 I0.013 J0.0225
G0 Z0.25
G0 X5.9997 Y3.9395
G0 Z-0.0025
G1 F10.0 Z-0.135
G3 F60.0 X5.987 Y3.936 I0.0003 J-0.026
G3 Y3.891 I0.013 J-0.0225
G3 X6.026 Y3.9135 I0.013 J0.0225
G3 X5.9997 Y3.9395 I-0.026 J0.0
G0 Z0.25
G0 X6.0 Y3.1125
G0 Z-0.0025
G1 F10.0 Z-0.135
G3 F60.0 X5.987 Y3.109 I0.0 J-0.026
G3 Y3.064 I0.013 J-0.0225
G3 X6.026 Y3.0865 I0.013 J0.0225
G3 X6.0 Y3.1125 I-0.026 J0.0
G0 Z0.25
G0 Y2.3625
G0 Z-0.0025
G1 F10.0 Z-0.135
G3 F60.0 X5.987 Y2.359 I0.0 J-0.026
G3 Y2.314 I0.013 J-0.0225
G3 X6.026 Y2.3365 I0.013 J0.0225
G3 X6.0 Y2.3625 I-0.026 J0.0
G0 Z0.25
G0 X4.584 Y2.337
G0 Z-0.0025
G1 F10.0 Z-0.135
G3 F60.0 X4.545 Y2.359 I-0.026 J-0.0005
G3 Y2.314 I0.013 J-0.0225
G3 X4.584 Y2.3365 I0.013 J0.0225
G1 Y2.337
G0 Z0.25
G0 X4.5589 Y3.0605
G0 Z-0.0025
G1 F10.0 Z-0.135
G3 F60.0 X4.584 Y3.0865 I-0.0009 J0.026
G3 X4.545 Y3.109 I-0.026 J0.0
G3 Y3.064 I0.013 J-0.0225
G3 X4.5589 Y3.0605 I0.013 J0.0225
G0 Z0.25
G0 X4.558 Y3.8875
G0 Z-0.0025
G1 F10.0 Z-0.135
G3 F60.0 X4.584 Y3.9135 I0.0 J0.026
G3 X4.545 Y3.936 I-0.026 J0.0
G3 Y3.891 I0.013 J-0.0225
G3 X4.558 Y3.8875 I0.013 J0.0225
G0 Z0.25
G0 Y4.6375
G0 Z-0.0025
G1 F10.0 Z-0.135
G3 F60.0 X4.584 Y4.6635 I0.0 J0.026
G3 X4.545 Y4.686 I-0.026 J0.0
G3 Y4.641 I0.013 J-0.0225
G3 X4.558 Y4.6375 I0.013 J0.0225
G0 Z0.25
G0 X2.9645 Y5.2783
G0 Z-0.0025
G1 F10.0 Z-0.135
G3 F60.0 X2.9827 Y5.3721 I-0.2334 J0.0939
G3 X2.6053 Y5.59 I-0.2516 J0.0
G3 Y5.1542 I0.1258 J-0.2179
G3 X2.9645 Y5.2783 I0.1258 J0.2179
G0 Z0.25
G0 X0.6014 Y3.5731
G0 Z-0.0025
G1 F10.0 Z-0.135
G3 F60.0 X0.4375 Y3.6083 I-0.1014 J-0.0731
G3 Y3.3917 I0.0625 J-0.1083
G3 X0.625 Y3.5 I0.0625 J0.1083
G3 X0.6014 Y3.5731 I-0.125 J0.0
( outline )
G0 Z0.25
G0 X1.456 Y1.4841
G0 Z0.0625
G1 F10.0 Z-0.07
G1 F60.0 X2.9413 Y0.0269
G3 X3.1602 Y-0.0625 I0.2188 J0.2231
G1 X3.558
G3 X3.8705 Y0.25 I0.0 J0.3125
G1 Y1.5865
G2 X4.308 Y2.024 I0.4375 J0.0
G1 X6.25
G2 X6.6875 Y1.5865 I0.0 J-0.4375
G1 Y0.12
G3 X6.87 Y-0.0625 I0.1825 J0.0
G1 X6.875
G3 X7.0625 Y0.125 I0.0 J0.1875
G1 Y6.88
G3 X6.88 Y7.0625 I-0.1825 J0.0
G1 X6.875
G3 X6.6875 Y6.875 I0.0 J-0.1875
G1 Y5.4135
G2 X6.25 Y4.976 I-0.4375 J0.0
G1 X4.308
G2 X3.8705 Y5.4135 I0.0 J0.4375
G1 Y6.75
G3 X3.558 Y7.0625 I-0.3125 J0.0
G1 X3.1602
G3 X2.9413 Y6.9731 I0.0 J-0.3125
G1 X0.1061 Y4.1916
G3 X-0.0625 Y3.7901 I0.3939 J-0.4015
G1 Y3.2099
G3 X0.1061 Y2.8084 I0.5625 J0.0
G1 X1.456 Y1.4841
G1 F10.0 Z-0.135
G1 F60.0 X2.9413 Y0.0269
G3 X3.1602 Y-0.0625 I0.2188 J0.2231
G1 X3.558
G3 X3.8705 Y0.25 I0.0 J0.3125
G1 Y1.5865
G2 X4.308 Y2.024 I0.4375 J0.0
G1 X6.25
G2 X6.6875 Y1.5865 I0.0 J-0.4375
G1 Y0.12
G3 X6.87 Y-0.0625 I0.1825 J0.0
G1 X6.875
G3 X7.0625 Y0.125 I0.0 J0.1875
G1 Y6.88
G3 X6.88 Y7.0625 I-0.1825 J0.0
G1 X6.875
G3 X6.6875 Y6.875 I0.0 J-0.1875
G1 Y5.4135
G2 X6.25 Y4.976 I-0.4375 J0.0
G1 X4.308
G2 X3.8705 Y5.4135 I0.0 J0.4375
G1 Y6.75
G3 X3.558 Y7.0625 I-0.3125 J0.0
G1 X3.1602
G3 X2.9413 Y6.9731 I0.0 J-0.3125
G1 X0.1061 Y4.1916
G3 X-0.0625 Y3.7901 I0.3939 J-0.4015
G1 Y3.2099
G3 X0.1061 Y2.8084 I0.5625 J0.0
G1 X1.456 Y1.4841
G0 Z0.25
M30
