( Made using CamBam - http://www.cambam.info )
( plate_top_c 10/8/2017 4:16:21 PM )
( T0 : 0.125 )
G20 G90 G64 G40
G0 Z0.25
( T0 : 0.125 )
T0 M6
( Profile1 )
G17
G0 X0.3517 Y0.1759
G0 Z0.0625
G1 F10.0 Z-0.07
G3 F60.0 X0.362 Y0.165 I0.0233 J0.0116
G3 X0.401 Y0.1875 I0.013 J0.0225
G3 X0.362 Y0.21 I-0.026 J0.0
G3 X0.3517 Y0.1759 I0.013 J-0.0225
G0 Z0.25
G0 X2.349 Y0.1874
G0 Z0.0625
G1 F10.0 Z-0.07
G3 F60.0 X2.362 Y0.165 I0.026 J0.0001
G3 X2.401 Y0.1875 I0.013 J0.0225
G3 X2.362 Y0.21 I-0.026 J0.0
G3 X2.349 Y0.1874 I0.013 J-0.0225
G0 Z0.25
G0 X2.3367 Y1.8365
G0 Z0.0625
G1 F10.0 Z-0.07
G3 F60.0 X2.367 Y1.867 I-0.0002 J0.0305
G3 X2.3213 Y1.8934 I-0.0305 J0.0
G3 Y1.8406 I0.0153 J-0.0264
G3 X2.3367 Y1.8365 I0.0153 J0.0264
G0 Z0.25
G0 X2.8061 Y1.8651
G0 Z0.0625
G1 F10.0 Z-0.07
G3 F60.0 X2.8213 Y1.8406 I0.0304 J0.0019
G3 X2.867 Y1.867 I0.0153 J0.0264
G3 X2.8213 Y1.8934 I-0.0305 J0.0
G3 X2.8061 Y1.8651 I0.0153 J-0.0264
G0 Z0.25
G0 X4.133 Y1.867
G0 Z0.0625
G1 F10.0 Z-0.07
G3 F60.0 X4.1483 Y1.8406 I0.0305 J0.0
G3 X4.194 Y1.867 I0.0153 J0.0264
G3 X4.1483 Y1.8934 I-0.0305 J0.0
G3 X4.133 Y1.867 I0.0153 J-0.0264
G0 Z0.25
G0 X4.633 Y1.8745
G0 Z0.0625
G1 F10.0 Z-0.07
G3 F60.0 X4.6483 Y1.8486 I0.0305 J0.0005
G3 X4.694 Y1.875 I0.0153 J0.0264
G3 X4.6483 Y1.9014 I-0.0305 J0.0
G3 X4.633 Y1.8745 I0.0153 J-0.0264
G0 Z0.25
G0 X4.6629 Y3.2785
G0 Z0.0625
G1 F10.0 Z-0.07
G3 F60.0 X4.694 Y3.309 I0.0006 J0.0305
G3 X4.6483 Y3.3354 I-0.0305 J0.0
G3 Y3.2826 I0.0153 J-0.0264
G3 X4.6629 Y3.2785 I0.0153 J0.0264
G0 Z0.25
G0 X4.1939 Y3.3071
G0 Z0.0625
G1 F10.0 Z-0.07
G3 F60.0 X4.194 Y3.309 I-0.0304 J0.0019
G3 X4.1483 Y3.3354 I-0.0305 J0.0
G3 Y3.2826 I0.0153 J-0.0264
G3 X4.1939 Y3.3071 I0.0153 J0.0264
G0 Z0.25
G0 X2.867 Y3.309
G0 Z0.0625
G1 F10.0 Z-0.07
G3 F60.0 X2.8213 Y3.3354 I-0.0305 J0.0
G3 Y3.2826 I0.0153 J-0.0264
G3 X2.867 Y3.309 I0.0153 J0.0264
G0 Z0.25
G0 X2.367
G0 Z0.0625
G1 F10.0 Z-0.07
G3 F60.0 X2.3213 Y3.3354 I-0.0305 J0.0
G3 Y3.2826 I0.0153 J-0.0264
G3 X2.367 Y3.309 I0.0153 J0.0264
G0 Z0.25
G0 X0.5068 Y4.977
G0 Z0.0625
G1 F10.0 Z-0.07
G3 F60.0 X0.5134 Y4.9943 I-0.0194 J0.0174
G3 X0.4744 Y5.0169 I-0.026 J0.0
G3 Y4.9718 I0.013 J-0.0225
G3 X0.5068 Y4.977 I0.013 J0.0225
G0 Z0.25
G0 X1.3989 Y5.8112
G0 Z0.0625
G1 F10.0 Z-0.07
G3 F60.0 X1.4049 Y5.8065 I0.019 J0.0178
G3 X1.4439 Y5.829 I0.013 J0.0225
G3 X1.4049 Y5.8515 I-0.026 J0.0
G3 X1.3989 Y5.8112 I0.013 J-0.0225
G0 Z0.25
G0 X3.3912 Y6.9384
G0 Z0.0625
G1 F10.0 Z-0.07
G3 F60.0 X3.4375 Y6.8917 I0.1088 J0.0616
G3 X3.625 Y7.0 I0.0625 J0.1083
G3 X3.4375 Y7.1083 I-0.125 J0.0
G3 X3.3912 Y6.9384 I0.0625 J-0.1083
G0 Z0.25
G0 X5.5589 Y5.8407
G0 Z0.0625
G1 F10.0 Z-0.07
G3 F60.0 X5.5691 Y5.8065 I0.0232 J-0.0117
G3 X5.6081 Y5.829 I0.013 J0.0225
G3 X5.5691 Y5.8515 I-0.026 J0.0
G3 X5.5589 Y5.8407 I0.013 J-0.0225
G0 Z0.25
G0 X5.3675 Y5.0372
G0 Z0.0625
G1 F10.0 Z-0.07
G3 F60.0 X5.362 Y5.0364 I-0.0017 J-0.0073
G3 Y5.0234 I0.0038 J-0.0065
G3 X5.3733 Y5.0299 I0.0038 J0.0065
G3 X5.3675 Y5.0372 I-0.0075 J0.0
G0 Z0.25
G0 X5.3659 Y4.7299
G0 Z0.0625
G1 F10.0 Z-0.07
G3 F60.0 X5.3545 Y4.7269 I-0.0001 J-0.0225
G3 Y4.6879 I0.0113 J-0.0195
G3 X5.3883 Y4.7074 I0.0113 J0.0195
G3 X5.3659 Y4.7299 I-0.0225 J0.0
G0 Z0.25
G0 X5.3658 Y4.3924
G0 Z0.0625
G1 F10.0 Z-0.07
G3 F60.0 X5.362 Y4.3914 I0.0 J-0.0075
G3 Y4.3784 I0.0038 J-0.0065
G3 X5.3733 Y4.3849 I0.0038 J0.0065
G3 X5.3658 Y4.3924 I-0.0075 J0.0
G0 Z0.25
G0 X5.735 Y4.7026
G0 Z0.0625
G1 F10.0 Z-0.07
G3 F60.0 X5.737 Y4.7009 I0.0057 J0.0048
G3 X5.7483 Y4.7074 I0.0038 J0.0065
G3 X5.737 Y4.7139 I-0.0075 J0.0
G3 X5.735 Y4.7026 I0.0038 J-0.0065
G0 Z0.25
G0 X4.9983 Y4.7074
G0 Z0.0625
G1 F10.0 Z-0.07
G3 F60.0 X4.987 Y4.7139 I-0.0075 J0.0
G3 Y4.7009 I0.0038 J-0.0065
G3 X4.9983 Y4.7074 I0.0038 J0.0065
G0 Z0.25
G0 X6.487 Y4.9895
G0 Z0.0625
G1 F10.0 Z-0.07
G3 F60.0 X6.4996 Y4.9718 I0.0255 J0.0048
G3 X6.5386 Y4.9943 I0.013 J0.0225
G3 X6.4996 Y5.0169 I-0.026 J0.0
G3 X6.487 Y4.9895 I0.013 J-0.0225
G0 Z0.25
G0 X6.6243 Y0.2135
G0 Z0.0625
G1 F10.0 Z-0.07
G3 F60.0 X6.612 Y0.21 I0.0007 J-0.026
G3 Y0.165 I0.013 J-0.0225
G3 X6.651 Y0.1875 I0.013 J0.0225
G3 X6.6243 Y0.2135 I-0.026 J0.0
G0 Z0.25
G0 X4.651 Y0.1878
G0 Z0.0625
G1 F10.0 Z-0.07
G3 F60.0 X4.612 Y0.21 I-0.026 J-0.0003
G3 Y0.165 I0.013 J-0.0225
G3 X4.651 Y0.1875 I0.013 J0.0225
G1 Y0.1878
G1 F10.0 Z-0.103
G3 F60.0 X4.612 Y0.21 I-0.026 J-0.0003
G3 Y0.165 I0.013 J-0.0225
G3 X4.651 Y0.1875 I0.013 J0.0225
G1 Y0.1878
G0 Z0.25
G0 X4.6633 Y1.8445
G0 Z0.0295
G1 F10.0 Z-0.103
G3 F60.0 X4.694 Y1.875 I0.0002 J0.0305
G3 X4.6483 Y1.9014 I-0.0305 J0.0
G3 Y1.8486 I0.0153 J-0.0264
G3 X4.6633 Y1.8445 I0.0153 J0.0264
G0 Z0.25
G0 X4.194 Y1.8656
G0 Z0.0295
G1 F10.0 Z-0.103
G3 F60.0 Y1.867 I-0.0305 J0.0014
G3 X4.1483 Y1.8934 I-0.0305 J0.0
G3 Y1.8406 I0.0153 J-0.0264
G3 X4.194 Y1.8656 I0.0153 J0.0264
G0 Z0.25
G0 X2.867 Y1.867
G0 Z-0.0075
G1 F10.0 Z-0.103
G3 F60.0 X2.8213 Y1.8934 I-0.0305 J0.0
G3 Y1.8406 I0.0153 J-0.0264
G3 X2.867 Y1.867 I0.0153 J0.0264
G0 Z0.25
G0 X2.367
G0 Z-0.0075
G1 F10.0 Z-0.103
G3 F60.0 X2.3213 Y1.8934 I-0.0305 J0.0
G3 Y1.8406 I0.0153 J-0.0264
G3 X2.367 Y1.867 I0.0153 J0.0264
G0 Z0.25
G0 X2.3371 Y3.2785
G0 Z0.0295
G1 F10.0 Z-0.103
G3 F60.0 X2.367 Y3.309 I-0.0006 J0.0305
G3 X2.3213 Y3.3354 I-0.0305 J0.0
G3 Y3.2826 I0.0153 J-0.0264
G3 X2.3371 Y3.2785 I0.0153 J0.0264
G0 Z0.25
G0 X2.8061 Y3.3071
G0 Z0.0295
G1 F10.0 Z-0.103
G3 F60.0 X2.8213 Y3.2826 I0.0304 J0.0019
G3 X2.867 Y3.309 I0.0153 J0.0264
G3 X2.8213 Y3.3354 I-0.0305 J0.0
G3 X2.8061 Y3.3071 I0.0153 J-0.0264
G0 Z0.25
G0 X4.133 Y3.309
G0 Z0.0295
G1 F10.0 Z-0.103
G3 F60.0 X4.1483 Y3.2826 I0.0305 J0.0
G3 X4.194 Y3.309 I0.0153 J0.0264
G3 X4.1483 Y3.3354 I-0.0305 J0.0
G3 X4.133 Y3.309 I0.0153 J-0.0264
G0 Z0.25
G0 X4.633
G0 Z0.0295
G1 F10.0 Z-0.103
G3 F60.0 X4.6483 Y3.2826 I0.0305 J0.0
G3 X4.694 Y3.309 I0.0153 J0.0264
G3 X4.6483 Y3.3354 I-0.0305 J0.0
G3 X4.633 Y3.309 I0.0153 J-0.0264
G0 Z0.25
G0 X5.3615 Y4.3787
G0 Z0.0295
G1 F10.0 Z-0.103
G1 F60.0 X5.362 Y4.3784
G3 X5.3733 Y4.3849 I0.0038 J0.0065
G3 X5.362 Y4.3914 I-0.0075 J0.0
G3 X5.3615 Y4.3787 I0.0038 J-0.0065
G0 Z0.25
G0 X5.3655 Y4.6849
G0 Z0.0295
G1 F10.0 Z-0.103
G3 F60.0 X5.3883 Y4.7074 I0.0003 J0.0225
G3 X5.3545 Y4.7269 I-0.0225 J0.0
G3 Y4.6879 I0.0113 J-0.0195
G3 X5.3655 Y4.6849 I0.0112 J0.0195
G0 Z0.25
G0 X5.3658 Y5.0224
G0 Z0.0295
G1 F10.0 Z-0.103
G3 F60.0 X5.3733 Y5.0299 I0.0 J0.0075
G3 X5.362 Y5.0364 I-0.0075 J0.0
G3 Y5.0234 I0.0038 J-0.0065
G3 X5.3658 Y5.0224 I0.0038 J0.0065
G0 Z0.25
G0 X4.9965 Y4.7122
G0 Z0.0295
G1 F10.0 Z-0.103
G3 F60.0 X4.987 Y4.7139 I-0.0057 J-0.0048
G3 Y4.7009 I0.0038 J-0.0065
G3 X4.9983 Y4.7074 I0.0038 J0.0065
G3 X4.9965 Y4.7122 I-0.0075 J0.0
G0 Z0.25
G0 X5.7333 Y4.7075
G0 Z0.0295
G1 F10.0 Z-0.103
G3 F60.0 X5.737 Y4.7009 I0.0075 J0.0
G3 X5.7483 Y4.7074 I0.0038 J0.0065
G3 X5.737 Y4.7139 I-0.0075 J0.0
G3 X5.7333 Y4.7075 I0.0038 J-0.0065
G0 Z0.25
G0 X6.4882 Y4.9854
G0 Z0.0295
G1 F10.0 Z-0.103
G3 F60.0 X6.4996 Y4.9718 I0.0244 J0.009
G3 X6.5386 Y4.9943 I0.013 J0.0225
G3 X6.4996 Y5.0169 I-0.026 J0.0
G3 X6.4882 Y4.9854 I0.013 J-0.0225
G0 Z0.25
G0 X5.6011 Y5.8113
G0 Z0.0295
G1 F10.0 Z-0.103
G3 F60.0 X5.6081 Y5.829 I-0.019 J0.0177
G3 X5.5691 Y5.8515 I-0.026 J0.0
G3 Y5.8065 I0.013 J-0.0225
G3 X5.6011 Y5.8113 I0.013 J0.0225
G0 Z0.25
G0 X3.6088 Y6.9384
G0 Z0.0295
G1 F10.0 Z-0.103
G3 F60.0 X3.625 Y7.0 I-0.1088 J0.0616
G3 X3.4375 Y7.1083 I-0.125 J0.0
G3 Y6.8917 I0.0625 J-0.1083
G3 X3.6088 Y6.9384 I0.0625 J0.1083
G0 Z0.25
G0 X1.4411 Y5.8407
G0 Z0.0295
G1 F10.0 Z-0.103
G3 F60.0 X1.4049 Y5.8515 I-0.0232 J-0.0117
G3 Y5.8065 I0.013 J-0.0225
G3 X1.4439 Y5.829 I0.013 J0.0225
G3 X1.4411 Y5.8407 I-0.026 J0.0
G0 Z0.25
G0 X0.5069 Y5.0116
G0 Z0.0295
G1 F10.0 Z-0.103
G3 F60.0 X0.4744 Y5.0169 I-0.0194 J-0.0173
G3 Y4.9718 I0.013 J-0.0225
G3 X0.5134 Y4.9943 I0.013 J0.0225
G3 X0.5069 Y5.0116 I-0.026 J0.0
G0 Z0.25
G0 X0.3757 Y0.2135
G0 Z0.0295
G1 F10.0 Z-0.103
G3 F60.0 X0.362 Y0.21 I-0.0007 J-0.026
G3 Y0.165 I0.013 J-0.0225
G3 X0.401 Y0.1875 I0.013 J0.0225
G3 X0.3757 Y0.2135 I-0.026 J0.0
G0 Z0.25
G0 X2.349 Y0.1878
G0 Z0.0295
G1 F10.0 Z-0.103
G3 F60.0 X2.362 Y0.165 I0.026 J-0.0003
G3 X2.401 Y0.1875 I0.013 J0.0225
G3 X2.362 Y0.21 I-0.026 J0.0
G3 X2.349 Y0.1878 I0.013 J-0.0225
G0 Z0.25
G0 X6.599 Y0.1875
G0 Z0.0295
G1 F10.0 Z-0.103
G3 F60.0 X6.612 Y0.165 I0.026 J0.0
G3 X6.651 Y0.1875 I0.013 J0.0225
G3 X6.612 Y0.21 I-0.026 J0.0
G3 X6.599 Y0.1875 I0.013 J-0.0225
( Profile2 )
G0 Z0.25
G0 X-0.0076 Y-0.0076
G0 Z0.0625
G1 F10.0 Z-0.07
G2 F60.0 X-0.0625 Y0.125 I0.1326 J0.1326
G1 Y0.75
G2 X0.125 Y0.9375 I0.1875 J0.0
G1 X0.3164
G0 Z-0.0405
G1 X0.5664
G1 F10.0 Z-0.07
G1 F60.0 X1.8365
G3 X2.024 Y1.125 I0.0 J0.1875
G1 Y3.809
G3 X1.8365 Y3.9965 I-0.1875 J0.0
G1 X0.25
G2 X-0.0625 Y4.309 I0.0 J0.3125
G1 Y4.6974
G2 X0.0413 Y4.93 I0.3125 J0.0
G1 X2.887 Y7.4826
G2 X3.0957 Y7.5625 I0.2087 J-0.2326
G1 X3.9043
G2 X4.113 Y7.4826 I0.0 J-0.3125
G1 X6.9587 Y4.93
G2 X7.0605 Y4.7331 I-0.2087 J-0.2326
G0 Z-0.0405
G2 X7.0625 Y4.6974 I-0.3105 J-0.0356
G1 Y4.4831
G1 F10.0 Z-0.07
G1 F60.0 Y4.309
G2 X6.75 Y3.9965 I-0.3125 J0.0
G1 X5.1635
G3 X4.976 Y3.809 I0.0 J-0.1875
G1 Y1.125
G3 X5.1635 Y0.9375 I0.1875 J0.0
G1 X6.875
G2 X7.0625 Y0.75 I0.0 J-0.1875
G1 Y0.125
G2 X6.875 Y-0.0625 I-0.1875 J0.0
G1 X0.125
G2 X-0.0076 Y-0.0076 I0.0 J0.1875
G1 F10.0 Z-0.103
G2 F60.0 X-0.0625 Y0.125 I0.1326 J0.1326
G1 Y0.75
G2 X0.125 Y0.9375 I0.1875 J0.0
G1 X0.3164
G0 Z-0.0405
G1 X0.5664
G1 F10.0 Z-0.103
G1 F60.0 X1.8365
G3 X2.024 Y1.125 I0.0 J0.1875
G1 Y3.809
G3 X1.8365 Y3.9965 I-0.1875 J0.0
G1 X0.25
G2 X-0.0625 Y4.309 I0.0 J0.3125
G1 Y4.6974
G2 X0.0413 Y4.93 I0.3125 J0.0
G1 X2.887 Y7.4826
G2 X3.0957 Y7.5625 I0.2087 J-0.2326
G1 X3.9043
G2 X4.113 Y7.4826 I0.0 J-0.3125
G1 X6.9587 Y4.93
G2 X7.0605 Y4.7331 I-0.2087 J-0.2326
G0 Z-0.0405
G2 X7.0625 Y4.6974 I-0.3105 J-0.0356
G1 Y4.4831
G1 F10.0 Z-0.103
G1 F60.0 Y4.309
G2 X6.75 Y3.9965 I-0.3125 J0.0
G1 X5.1635
G3 X4.976 Y3.809 I0.0 J-0.1875
G1 Y1.125
G3 X5.1635 Y0.9375 I0.1875 J0.0
G1 X6.875
G2 X7.0625 Y0.75 I0.0 J-0.1875
G1 Y0.125
G2 X6.875 Y-0.0625 I-0.1875 J0.0
G1 X0.125
G2 X-0.0076 Y-0.0076 I0.0 J0.1875
G0 Z0.25
M30
