( Made using CamBam - http://www.cambam.info )
( top_plate_35_degree 10/7/2017 10:17:13 PM )
( T0 : 0.125 )
G20 G90 G64 G40
G0 Z0.25
( T0 : 0.125 )
T0 M6
( holes )
G17
G0 X0.3517 Y0.1759
G0 Z0.0625
G1 F10.0 Z-0.07
G3 F40.0 X0.362 Y0.165 I0.0233 J0.0116
G3 X0.401 Y0.1875 I0.013 J0.0225
G3 X0.362 Y0.21 I-0.026 J0.0
G3 X0.3517 Y0.1759 I0.013 J-0.0225
G0 Z0.25
G0 X2.349 Y0.1874
G0 Z0.0625
G1 F10.0 Z-0.07
G3 F40.0 X2.362 Y0.165 I0.026 J0.0001
G3 X2.401 Y0.1875 I0.013 J0.0225
G3 X2.362 Y0.21 I-0.026 J0.0
G3 X2.349 Y0.1874 I0.013 J-0.0225
G0 Z0.25
G0 X2.3368 Y1.3365
G0 Z0.0625
G1 F10.0 Z-0.07
G3 F40.0 X2.367 Y1.367 I-0.0003 J0.0305
G3 X2.3213 Y1.3934 I-0.0305 J0.0
G3 Y1.3406 I0.0153 J-0.0264
G3 X2.3368 Y1.3365 I0.0153 J0.0264
G0 Z0.25
G0 X2.8061 Y1.3651
G0 Z0.0625
G1 F10.0 Z-0.07
G3 F40.0 X2.8213 Y1.3406 I0.0304 J0.0019
G3 X2.867 Y1.367 I0.0153 J0.0264
G3 X2.8213 Y1.3934 I-0.0305 J0.0
G3 X2.8061 Y1.3651 I0.0153 J-0.0264
G0 Z0.25
G0 X4.133 Y1.367
G0 Z0.0625
G1 F10.0 Z-0.07
G3 F40.0 X4.1483 Y1.3406 I0.0305 J0.0
G3 X4.194 Y1.367 I0.0153 J0.0264
G3 X4.1483 Y1.3934 I-0.0305 J0.0
G3 X4.133 Y1.367 I0.0153 J-0.0264
G0 Z0.25
G0 X4.633 Y1.3745
G0 Z0.0625
G1 F10.0 Z-0.07
G3 F40.0 X4.6483 Y1.3486 I0.0305 J0.0005
G3 X4.694 Y1.375 I0.0153 J0.0264
G3 X4.6483 Y1.4014 I-0.0305 J0.0
G3 X4.633 Y1.3745 I0.0153 J-0.0264
G0 Z0.25
G0 X4.6252 Y0.2135
G0 Z0.0625
G1 F10.0 Z-0.07
G3 F40.0 X4.612 Y0.21 I-0.0002 J-0.026
G3 Y0.165 I0.013 J-0.0225
G3 X4.651 Y0.1875 I0.013 J0.0225
G3 X4.6252 Y0.2135 I-0.026 J0.0
G0 Z0.25
G0 X6.599 Y0.1878
G0 Z0.0625
G1 F10.0 Z-0.07
G3 F40.0 X6.612 Y0.165 I0.026 J-0.0003
G3 X6.651 Y0.1875 I0.013 J0.0225
G3 X6.612 Y0.21 I-0.026 J0.0
G3 X6.599 Y0.1878 I0.013 J-0.0225
G0 Z0.25
G0 X4.6816 Y2.7845
G0 Z0.0625
G1 F10.0 Z-0.07
G3 F40.0 X4.694 Y2.809 I-0.0181 J0.0245
G3 X4.6483 Y2.8354 I-0.0305 J0.0
G3 Y2.7826 I0.0153 J-0.0264
G3 X4.6816 Y2.7845 I0.0153 J0.0264
G0 Z0.25
G0 X4.194 Y2.8076
G0 Z0.0625
G1 F10.0 Z-0.07
G3 F40.0 Y2.809 I-0.0305 J0.0014
G3 X4.1483 Y2.8354 I-0.0305 J0.0
G3 Y2.7826 I0.0153 J-0.0264
G3 X4.194 Y2.8076 I0.0153 J0.0264
G0 Z0.25
G0 X2.867 Y2.809
G0 Z0.0625
G1 F10.0 Z-0.07
G3 F40.0 X2.8213 Y2.8354 I-0.0305 J0.0
G3 Y2.7826 I0.0153 J-0.0264
G3 X2.867 Y2.809 I0.0153 J0.0264
G0 Z0.25
G0 X2.367
G0 Z0.0625
G1 F10.0 Z-0.07
G3 F40.0 X2.3213 Y2.8354 I-0.0305 J0.0
G3 Y2.7826 I0.0153 J-0.0264
G3 X2.367 Y2.809 I0.0153 J0.0264
G0 Z0.25
G0 X0.5068 Y4.477
G0 Z0.0625
G1 F10.0 Z-0.07
G3 F40.0 X0.5134 Y4.4943 I-0.0194 J0.0174
G3 X0.4744 Y4.5169 I-0.026 J0.0
G3 Y4.4718 I0.013 J-0.0225
G3 X0.5068 Y4.477 I0.013 J0.0225
G0 Z0.25
G0 X1.3989 Y5.3112
G0 Z0.0625
G1 F10.0 Z-0.07
G3 F40.0 X1.4049 Y5.3065 I0.019 J0.0178
G3 X1.4439 Y5.329 I0.013 J0.0225
G3 X1.4049 Y5.3515 I-0.026 J0.0
G3 X1.3989 Y5.3112 I0.013 J-0.0225
G0 Z0.25
G0 X3.3912 Y6.4384
G0 Z0.0625
G1 F10.0 Z-0.07
G3 F40.0 X3.4375 Y6.3917 I0.1088 J0.0616
G3 X3.625 Y6.5 I0.0625 J0.1083
G3 X3.4375 Y6.6083 I-0.125 J0.0
G3 X3.3912 Y6.4384 I0.0625 J-0.1083
G0 Z0.25
G0 X5.5589 Y5.3407
G0 Z0.0625
G1 F10.0 Z-0.07
G3 F40.0 X5.5691 Y5.3065 I0.0232 J-0.0117
G3 X5.6081 Y5.329 I0.013 J0.0225
G3 X5.5691 Y5.3515 I-0.026 J0.0
G3 X5.5589 Y5.3407 I0.013 J-0.0225
G0 Z0.25
G0 X6.4931 Y4.5116
G0 Z0.0625
G1 F10.0 Z-0.07
G3 F40.0 X6.4996 Y4.4718 I0.0194 J-0.0173
G3 X6.5386 Y4.4943 I0.013 J0.0225
G3 X6.4996 Y4.5169 I-0.026 J0.0
G3 X6.4931 Y4.5116 I0.013 J-0.0225
G1 F10.0 Z-0.135
G3 F40.0 X6.4996 Y4.4718 I0.0194 J-0.0173
G3 X6.5386 Y4.4943 I0.013 J0.0225
G3 X6.4996 Y4.5169 I-0.026 J0.0
G3 X6.4931 Y4.5116 I0.013 J-0.0225
G0 Z0.25
G0 X5.6014 Y5.3116
G0 Z-0.0025
G1 F10.0 Z-0.135
G3 F40.0 X5.6081 Y5.329 I-0.0194 J0.0174
G3 X5.5691 Y5.3515 I-0.026 J0.0
G3 Y5.3065 I0.013 J-0.0225
G3 X5.6014 Y5.3116 I0.013 J0.0225
G0 Z0.25
G0 X3.6088 Y6.4385
G0 Z-0.0025
G1 F10.0 Z-0.135
G3 F40.0 X3.625 Y6.5 I-0.1088 J0.0615
G3 X3.4375 Y6.6083 I-0.125 J0.0
G3 Y6.3917 I0.0625 J-0.1083
G3 X3.6088 Y6.4385 I0.0625 J0.1083
G0 Z0.25
G0 X1.4411 Y5.3407
G0 Z-0.0025
G1 F10.0 Z-0.135
G3 F40.0 X1.4049 Y5.3515 I-0.0232 J-0.0117
G3 Y5.3065 I0.013 J-0.0225
G3 X1.4439 Y5.329 I0.013 J0.0225
G3 X1.4411 Y5.3407 I-0.026 J0.0
G0 Z0.25
G0 X0.5069 Y4.5116
G0 Z-0.0025
G1 F10.0 Z-0.135
G3 F40.0 X0.4744 Y4.5169 I-0.0194 J-0.0173
G3 Y4.4718 I0.013 J-0.0225
G3 X0.5134 Y4.4943 I0.013 J0.0225
G3 X0.5069 Y4.5116 I-0.026 J0.0
G0 Z0.25
G0 X2.3142 Y2.8298
G0 Z-0.0025
G1 F10.0 Z-0.135
G3 F40.0 X2.3213 Y2.7826 I0.0223 J-0.0208
G3 X2.367 Y2.809 I0.0153 J0.0264
G3 X2.3213 Y2.8354 I-0.0305 J0.0
G3 X2.3142 Y2.8298 I0.0152 J-0.0264
G0 Z0.25
G0 X2.806 Y2.8102
G0 Z-0.0025
G1 F10.0 Z-0.135
G3 F40.0 X2.8213 Y2.7826 I0.0305 J-0.0012
G3 X2.867 Y2.809 I0.0153 J0.0264
G3 X2.8213 Y2.8354 I-0.0305 J0.0
G3 X2.806 Y2.8102 I0.0153 J-0.0264
G0 Z0.25
G0 X4.133 Y2.809
G0 Z-0.0025
G1 F10.0 Z-0.135
G3 F40.0 X4.1483 Y2.7826 I0.0305 J0.0
G3 X4.194 Y2.809 I0.0153 J0.0264
G3 X4.1483 Y2.8354 I-0.0305 J0.0
G3 X4.133 Y2.809 I0.0153 J-0.0264
G0 Z0.25
G0 X4.633
G0 Z-0.0025
G1 F10.0 Z-0.135
G3 F40.0 X4.6483 Y2.7826 I0.0305 J0.0
G3 X4.694 Y2.809 I0.0153 J0.0264
G3 X4.6483 Y2.8354 I-0.0305 J0.0
G3 X4.633 Y2.809 I0.0153 J-0.0264
G0 Z0.25
G0 X4.6629 Y1.4055
G0 Z-0.0025
G1 F10.0 Z-0.135
G3 F40.0 X4.6483 Y1.4014 I0.0006 J-0.0305
G3 Y1.3486 I0.0153 J-0.0264
G3 X4.694 Y1.375 I0.0153 J0.0264
G3 X4.6629 Y1.4055 I-0.0305 J0.0
G0 Z0.25
G0 X4.1939 Y1.3693
G0 Z-0.0025
G1 F10.0 Z-0.135
G3 F40.0 X4.1483 Y1.3934 I-0.0304 J-0.0023
G3 Y1.3406 I0.0153 J-0.0264
G3 X4.194 Y1.367 I0.0153 J0.0264
G3 X4.1939 Y1.3693 I-0.0305 J0.0
G0 Z0.25
G0 X4.6161 Y0.2119
G0 Z-0.0025
G1 F10.0 Z-0.135
G3 F40.0 X4.612 Y0.21 I0.0089 J-0.0244
G3 Y0.165 I0.013 J-0.0225
G3 X4.651 Y0.1875 I0.013 J0.0225
G3 X4.6161 Y0.2119 I-0.026 J0.0
G0 Z0.25
G0 X6.599 Y0.1878
G0 Z-0.0075
G1 F10.0 Z-0.135
G3 F40.0 X6.612 Y0.165 I0.026 J-0.0003
G3 X6.651 Y0.1875 I0.013 J0.0225
G3 X6.612 Y0.21 I-0.026 J0.0
G3 X6.599 Y0.1878 I0.013 J-0.0225
G0 Z0.25
G0 X2.8656 Y1.3579
G0 Z-0.0025
G1 F10.0 Z-0.135
G3 F40.0 X2.867 Y1.367 I-0.0291 J0.0091
G3 X2.8213 Y1.3934 I-0.0305 J0.0
G3 Y1.3406 I0.0153 J-0.0264
G3 X2.8656 Y1.3579 I0.0153 J0.0264
G0 Z0.25
G0 X2.367 Y1.3665
G0 Z-0.0025
G1 F10.0 Z-0.135
G1 F40.0 Y1.367
G3 X2.3213 Y1.3934 I-0.0305 J0.0
G3 Y1.3406 I0.0153 J-0.0264
G3 X2.367 Y1.3665 I0.0153 J0.0264
G0 Z0.25
G0 X2.3748 Y0.2135
G0 Z-0.0025
G1 F10.0 Z-0.135
G3 F40.0 X2.362 Y0.21 I0.0002 J-0.026
G3 Y0.165 I0.013 J-0.0225
G3 X2.401 Y0.1875 I0.013 J0.0225
G3 X2.3748 Y0.2135 I-0.026 J0.0
G0 Z0.25
G0 X0.401 Y0.1878
G0 Z-0.0025
G1 F10.0 Z-0.135
G3 F40.0 X0.362 Y0.21 I-0.026 J-0.0003
G3 Y0.165 I0.013 J-0.0225
G3 X0.401 Y0.1875 I0.013 J0.0225
G1 Y0.1878
( drills )
G0 Z0.25
G0 X4.8263 Y4.0835
G98
G81 X4.8263 Y4.0835 Z-0.135 R0.0 F10.0
G81 X5.2013 Z-0.135
G81 Y4.406 Z-0.135
G81 X5.5763 Y4.0835 Z-0.135
G81 X5.2013 Y3.761 Z-0.135
G80
( outline )
G0 Z0.25
G0 X-0.0076 Y-0.0076
G0 Z0.0625
G1 F10.0 Z-0.07
G3 F40.0 X0.125 Y-0.0625 I0.1326 J0.1326
G1 X6.875
G3 X7.0625 Y0.125 I0.0 J0.1875
G1 Y0.25
G3 X6.875 Y0.4375 I-0.1875 J0.0
G1 X5.1635
G2 X4.976 Y0.625 I0.0 J0.1875
G1 Y3.309
G2 X5.1635 Y3.4965 I0.1875 J0.0
G1 X6.75
G3 X7.0625 Y3.809 I0.0 J0.3125
G1 Y4.1974
G3 X6.9587 Y4.43 I-0.3125 J0.0
G1 X4.113 Y6.9826
G3 X3.9043 Y7.0625 I-0.2087 J-0.2326
G1 X3.0957
G3 X2.887 Y6.9826 I0.0 J-0.3125
G1 X0.0413 Y4.43
G3 X-0.0625 Y4.1974 I0.2087 J-0.2326
G1 Y3.809
G3 X0.25 Y3.4965 I0.3125 J0.0
G1 X1.8365
G2 X2.024 Y3.309 I0.0 J-0.1875
G1 Y0.625
G2 X1.8365 Y0.4375 I-0.1875 J0.0
G1 X0.125
G3 X-0.0625 Y0.25 I0.0 J-0.1875
G1 Y0.125
G3 X-0.0076 Y-0.0076 I0.1875 J0.0
G1 F10.0 Z-0.135
G3 F40.0 X0.125 Y-0.0625 I0.1326 J0.1326
G1 X6.875
G3 X7.0625 Y0.125 I0.0 J0.1875
G1 Y0.25
G3 X6.875 Y0.4375 I-0.1875 J0.0
G1 X5.1635
G2 X4.976 Y0.625 I0.0 J0.1875
G1 Y3.309
G2 X5.1635 Y3.4965 I0.1875 J0.0
G1 X6.75
G3 X7.0625 Y3.809 I0.0 J0.3125
G1 Y4.1974
G3 X7.0542 Y4.269 I-0.3125 J0.0
G0 Z-0.0725
G3 X6.9587 Y4.43 I-0.3042 J-0.0716
G1 X6.9102 Y4.4735
G1 F10.0 Z-0.135
G1 F40.0 X4.113 Y6.9826
G3 X3.9043 Y7.0625 I-0.2087 J-0.2326
G1 X3.0957
G3 X2.887 Y6.9826 I0.0 J-0.3125
G1 X0.0413 Y4.43
G3 X-0.0625 Y4.1974 I0.2087 J-0.2326
G1 Y3.809
G3 X0.25 Y3.4965 I0.3125 J0.0
G1 X1.8365
G2 X2.024 Y3.309 I0.0 J-0.1875
G1 Y0.625
G2 X1.8365 Y0.4375 I-0.1875 J0.0
G1 X0.8164
G0 Z-0.0725
G1 X0.5664
G1 F10.0 Z-0.135
G1 F40.0 X0.125
G3 X-0.0625 Y0.25 I0.0 J-0.1875
G1 Y0.125
G3 X-0.0076 Y-0.0076 I0.1875 J0.0
G0 Z0.25
M30
